X:265
L:1/8
Q:1/4=100
M:2/4
K:D
|: BEEF | (B>A)(F>E) | D<DD<D | D>EFA | BEEF | (B>A)(FA) | (B/c/d) AF | E2 e2 |: Ddd>e | 
 d/c/B/c/ d2 | FAA>B | A/G/F/G/ A2 | Eeeg | fdec | (B/c/d/B/) AF | E2 E2 :|

